X: 38
T:The Fisherman's Island
R:Reel
C:Ed Reavy
M:2/2
L:1/8
Z:Joe Reavy
N:Ed believes that fishermen long to have their own island so
N:they can live surrounded by the sea they love.
N:This reel celebrates their quest for that elusive island home. It is
N:one of Ed's most popular compositions.
K:D
B, \
|: A,DFA d2 cd | BA^GB AFDF | (3GFD (3FED CDEF | GBed cBAg |
| fd (3dcd edAc | dcdB AGFD | EFGA cded |1 cAGE FDEC :|2 cAGE FD E2 ||
|: fd (3ddd AF (3FEF | DFAd fdAf | gece bece |dfed cAGE |
| DF (3FEF Adfd | Bg (3gfg edcB | Adfa gbed |1 cAGE FD D2 :|2 cAGE FDEC ||
